assets/svgs/shopping-grey/ShoppingGrey14.svg

<svg xmlns="http://www.w3.org/2000/svg" data-name="Layer 3" viewBox="0 0 128 128"><path d="M100.666 90.683l-19.975-5.74v-8.474c1.576-1.5 5.854-6.087 6.477-12.26a11.711 11.711 0 00.169-23.238 25.99 25.99 0 00-51.962 0A11.715 11.715 0 0036.931 64.3c.05 0 .091-.024.14-.028a25.922 25.922 0 0010.237 12.6v8.076l-19.857 5.706c-.151.031-15.184 3.336-15.184 20.1a1.591 1.591 0 103.182 0c0-14.127 12.135-16.872 12.764-17.01L48.3 87.969l14.439 18.771a1.59 1.59 0 002.522 0L79.7 87.969l20.2 5.8c.517.107 12.647 2.78 12.647 16.98a1.591 1.591 0 103.182 0c.004-16.759-15.029-20.064-15.063-20.066zm-6.345-38.105a8.543 8.543 0 01-6.948 8.377V44.2a8.545 8.545 0 016.948 8.378zm-65.927 0A8.544 8.544 0 0135.34 44.2v10.756a26.161 26.161 0 00.726 6.072 8.52 8.52 0 01-7.672-8.45zM64 103.162L50.491 85.6v-7.007a26.058 26.058 0 003.37 1.26 5.354 5.354 0 005.439 4.562h4.121a5.134 5.134 0 100-10.242H59.3a5.6 5.6 0 00-4.749 2.569 22.764 22.764 0 01-16.028-21.786v-13.28a22.834 22.834 0 1145.668 0v20.358c0 .016.009.029.009.045a1.584 1.584 0 00-.13.628c0 6.71-5.933 11.787-5.993 11.838a1.594 1.594 0 00-.568 1.218V85.6zm-7-24.047c.007-.023.022-.04.028-.063a1.473 1.473 0 00.006-.15 2.254 2.254 0 012.266-1.547h4.121a1.969 1.969 0 110 3.877H59.3a2.152 2.152 0 01-2.316-1.932 1.657 1.657 0 01.016-.185z"/><path d="M80 44.038a1.591 1.591 0 000-3.183c-6.766 0-8.973-4.974-9.06-5.178a1.591 1.591 0 00-2.778-.3c-7.429 10.691-24.466 8-24.637 7.967a1.593 1.593 0 00-1.854 1.57v17.793a1.591 1.591 0 103.182 0v-16c4.689.429 17.066.667 24.456-7.655A12.923 12.923 0 0080 44.038z"/></svg>

<svg id="Layer_3" data-name="Layer 3" xmlns="http://www.w3.org/2000/svg" viewBox="0 0 128 128"><title>Artboard 110</title><path d="M100.666,90.683,80.691,84.943V76.469c1.576-1.5,5.854-6.087,6.477-12.26a11.711,11.711,0,0,0,.169-23.238,25.99,25.99,0,0,0-51.962,0A11.715,11.715,0,0,0,36.931,64.3c.05,0,.091-.024.14-.028a25.922,25.922,0,0,0,10.237,12.6v8.076L27.451,90.654c-.151.031-15.184,3.336-15.184,20.1a1.591,1.591,0,1,0,3.182,0c0-14.127,12.135-16.872,12.764-17.01L48.3,87.969l14.439,18.771a1.59,1.59,0,0,0,2.522,0L79.7,87.969l20.2,5.8c.517.107,12.647,2.78,12.647,16.98a1.591,1.591,0,1,0,3.182,0C115.733,93.99,100.7,90.685,100.666,90.683ZM94.321,52.578a8.543,8.543,0,0,1-6.948,8.377V44.2A8.545,8.545,0,0,1,94.321,52.578Zm-65.927,0A8.544,8.544,0,0,1,35.34,44.2V54.956a26.161,26.161,0,0,0,.726,6.072A8.52,8.52,0,0,1,28.394,52.578ZM64,103.162,50.491,85.6V78.593a26.058,26.058,0,0,0,3.37,1.26A5.354,5.354,0,0,0,59.3,84.415h4.121a5.134,5.134,0,1,0,0-10.242H59.3a5.6,5.6,0,0,0-4.749,2.569A22.764,22.764,0,0,1,38.523,54.956V41.676a22.834,22.834,0,1,1,45.668,0V62.034c0,.016.009.029.009.045a1.584,1.584,0,0,0-.13.628c0,6.71-5.933,11.787-5.993,11.838a1.594,1.594,0,0,0-.568,1.218V85.6ZM57,79.115c.007-.023.022-.04.028-.063a1.473,1.473,0,0,0,.006-.15A2.254,2.254,0,0,1,59.3,77.355h4.121a1.969,1.969,0,1,1,0,3.877H59.3A2.152,2.152,0,0,1,56.984,79.3,1.657,1.657,0,0,1,57,79.115Z"/><path d="M80,44.038a1.591,1.591,0,0,0,0-3.183c-6.766,0-8.973-4.974-9.06-5.178a1.591,1.591,0,0,0-2.778-.3c-7.429,10.691-24.466,8-24.637,7.967a1.593,1.593,0,0,0-1.854,1.57V62.707a1.591,1.591,0,1,0,3.182,0v-16c4.689.429,17.066.667,24.456-7.655A12.923,12.923,0,0,0,80,44.038Z"/></svg>
